X: 20616
T: John Phadaí Chonchubhair's
R: jig
M: 6/8
K: Gmajor
|:d2B dBG|d2B dge|d2B dBG|ABG ABc|
d2B dBG|d2B dge|def gdB|ABG ABc:|
|:def gfg|def gab|def gdB|ABG ABc|
def gfg|def gab|c'af gdB|A2G ABc:|

